assets/images/svg/waffle_24.svg

<svg width="24" height="24" viewBox="0 0 24 24" fill="none" xmlns="http://www.w3.org/2000/svg">
<g clip-path="url(#clip0_865_53)">
<path d="M1.5 12L12 1.5L22.5 12L12 22.5L1.5 12Z" fill="#FBE5C6"/>
<rect x="11.8713" y="3.46875" width="3.36227" height="3.4203" transform="rotate(44.7451 11.8713 3.46875)" fill="#C99B75"/>
<rect x="15.0145" y="6.61523" width="3.20839" height="3.34805" transform="rotate(44.7451 15.0145 6.61523)" fill="#C99B75"/>
<rect x="12.0464" y="9.85742" width="3.05582" height="3.09599" transform="rotate(44.7451 12.0464 9.85742)" fill="#C99B75"/>
<rect x="8.94446" y="12.7676" width="3.11645" height="3.09599" transform="rotate(44.7451 8.94446 12.7676)" fill="#C99B75"/>
<rect x="12.1023" y="15.9238" width="3.22509" height="3.09599" transform="rotate(44.7451 12.1023 15.9238)" fill="#C99B75"/>
<rect x="15.1794" y="13" width="3.22509" height="3.09599" transform="rotate(44.7451 15.1794 13)" fill="#C99B75"/>
<rect x="18.1794" y="10" width="3.22509" height="3.09599" transform="rotate(44.7451 18.1794 10)" fill="#C99B75"/>
<rect x="8.84131" y="6.57227" width="3.36227" height="3.32603" transform="rotate(44.7451 8.84131 6.57227)" fill="#C99B75"/>
<rect x="5.93066" y="9.41406" width="3.36227" height="3.49519" transform="rotate(44.7451 5.93066 9.41406)" fill="#C99B75"/>
<rect x="5.93066" y="9.41406" width="3.36227" height="3.49519" transform="rotate(44.7451 5.93066 9.41406)" fill="#C99B75"/>
<path d="M12 22.571C11.8587 22.5712 11.7188 22.5434 11.5884 22.4891C11.4579 22.4348 11.3396 22.3551 11.2403 22.2547L1.74591 12.7603C1.54481 12.5586 1.43188 12.2854 1.43188 12.0006C1.43188 11.7158 1.54481 11.4426 1.74591 11.241L11.2403 1.74658C11.4441 1.54957 11.7165 1.43945 12 1.43945C12.2834 1.43945 12.5558 1.54957 12.7597 1.74658L22.254 11.241C22.4551 11.4426 22.568 11.7158 22.568 12.0006C22.568 12.2854 22.4551 12.5586 22.254 12.7603L12.7597 22.2547C12.6603 22.3551 12.542 22.4348 12.4116 22.4891C12.2812 22.5434 12.1412 22.5712 12 22.571ZM12 1.94595C11.9264 1.94561 11.8535 1.96004 11.7856 1.98838C11.7177 2.01673 11.6562 2.05841 11.6047 2.11095L2.11028 11.6053C2.05811 11.6571 2.0167 11.7187 1.98844 11.7865C1.96018 11.8544 1.94563 11.9271 1.94563 12.0006C1.94563 12.0741 1.96018 12.1469 1.98844 12.2148C2.0167 12.2826 2.05811 12.3442 2.11028 12.396L11.6047 21.8903C11.7105 21.9932 11.8523 22.0508 12 22.0508C12.1476 22.0508 12.2894 21.9932 12.3953 21.8903L21.8897 12.396C21.9418 12.3442 21.9832 12.2826 22.0115 12.2148C22.0398 12.1469 22.0543 12.0741 22.0543 12.0006C22.0543 11.9271 22.0398 11.8544 22.0115 11.7865C21.9832 11.7187 21.9418 11.6571 21.8897 11.6053L12.3953 2.11095C12.3438 2.05841 12.2822 2.01673 12.2143 1.98838C12.1464 1.96004 12.0735 1.94561 12 1.94595Z" fill="black"/>
<path d="M15.5 6.5L15 4.5L22.5 12L19.5 15H18.5L17 14L18 12L18.5 11L18 10H17L15 11.5L14 11V10.5L14.5 9L15.5 6.5Z" fill="#FDFDFD"/>
<path d="M12 14.5473C11.9661 14.5474 11.9325 14.5408 11.9012 14.5278C11.87 14.5149 11.8416 14.4957 11.8178 14.4716L9.5284 12.1823C9.48012 12.1339 9.453 12.0684 9.453 12.0001C9.453 11.9318 9.48012 11.8662 9.5284 11.8179L11.8178 9.52852C11.8661 9.48024 11.9316 9.45312 12 9.45312C12.0683 9.45312 12.1338 9.48024 12.1822 9.52852L14.4715 11.8179C14.5198 11.8662 14.5469 11.9318 14.5469 12.0001C14.5469 12.0684 14.5198 12.1339 14.4715 12.1823L12.1822 14.4716C12.1583 14.4957 12.13 14.5149 12.0987 14.5278C12.0674 14.5408 12.0338 14.5474 12 14.5473ZM10.075 12.0001L12 13.9251L13.925 12.0001L12 10.0751L10.075 12.0001Z" fill="black"/>
<path d="M15.1178 17.6659C15.0839 17.6661 15.0503 17.6595 15.019 17.6465C14.9877 17.6335 14.9594 17.6144 14.9356 17.5903L12.6462 15.3009C12.6219 15.2772 12.6025 15.2489 12.5893 15.2176C12.5761 15.1863 12.5693 15.1527 12.5693 15.1187C12.5693 15.0848 12.5761 15.0512 12.5893 15.0199C12.6025 14.9886 12.6219 14.9602 12.6462 14.9365L14.9356 12.6472C14.9593 12.6228 14.9876 12.6035 15.0189 12.5903C15.0502 12.5771 15.0838 12.5703 15.1178 12.5703C15.1517 12.5703 15.1853 12.5771 15.2166 12.5903C15.2479 12.6035 15.2762 12.6228 15.2999 12.6472L17.5893 14.9365C17.6376 14.9849 17.6647 15.0504 17.6647 15.1187C17.6647 15.187 17.6376 15.2526 17.5893 15.3009L15.2999 17.5903C15.2761 17.6144 15.2478 17.6335 15.2165 17.6465C15.1852 17.6595 15.1516 17.6661 15.1178 17.6659ZM13.1928 15.1187L15.1178 17.0437L17.0428 15.1187L15.1178 13.1937L13.1928 15.1187Z" fill="black"/>
<path d="M8.88219 11.4296C8.81383 11.4296 8.7483 11.4024 8.7 11.354L6.40719 9.06462C6.35891 9.01628 6.33179 8.95075 6.33179 8.88243C6.33179 8.81411 6.35891 8.74858 6.40719 8.70024L8.7 6.40743C8.74834 6.35915 8.81386 6.33203 8.88219 6.33203C8.95051 6.33203 9.01603 6.35915 9.06437 6.40743L11.3537 8.70024C11.402 8.74858 11.4291 8.81411 11.4291 8.88243C11.4291 8.95075 11.402 9.01628 11.3537 9.06462L9.06437 11.354C9.01607 11.4024 8.95054 11.4296 8.88219 11.4296ZM6.95719 8.88243L8.88219 10.8074L10.8072 8.88243L8.88219 6.95399L6.95719 8.88243Z" fill="black"/>
<path d="M13.8356 10.4089C13.7675 10.4074 13.7025 10.3804 13.6534 10.3333L12.5156 9.19548C12.4673 9.14714 12.4402 9.08161 12.4402 9.01329C12.4402 8.94497 12.4673 8.87944 12.5156 8.8311L14.805 6.53829C14.8533 6.49001 14.9188 6.46289 14.9871 6.46289C15.0555 6.46289 15.121 6.49001 15.1693 6.53829L15.4925 6.86141C15.5407 6.90975 15.5679 6.97528 15.5679 7.0436C15.5679 7.11192 15.5407 7.17745 15.4925 7.22579C15.4688 7.25011 15.4404 7.26944 15.4091 7.28264C15.3778 7.29584 15.3442 7.30264 15.3103 7.30264C15.2763 7.30264 15.2427 7.29584 15.2114 7.28264C15.1801 7.26944 15.1518 7.25011 15.1281 7.22579L14.9871 7.08829L13.0621 9.01329L14.0178 9.96891C14.0421 9.99261 14.0614 10.0209 14.0746 10.0522C14.0878 10.0835 14.0946 10.1171 14.0946 10.1511C14.0946 10.1851 14.0878 10.2187 14.0746 10.25C14.0614 10.2813 14.0421 10.3096 14.0178 10.3333C13.9695 10.3817 13.9039 10.4089 13.8356 10.4089Z" fill="black"/>
<path d="M17.0635 13.6327C17.0295 13.6335 16.9958 13.6271 16.9644 13.6141C16.933 13.6011 16.9047 13.5817 16.8813 13.5571L15.6335 12.3127C15.5857 12.264 15.5587 12.1987 15.5579 12.1305C15.5579 12.0622 15.5851 11.9966 15.6335 11.9483L17.7647 9.81709C17.7884 9.79276 17.8168 9.77343 17.8481 9.76023C17.8793 9.74703 17.913 9.74023 17.9469 9.74023C17.9809 9.74023 18.0145 9.74703 18.0458 9.76023C18.0771 9.77343 18.1054 9.79276 18.1291 9.81709C18.1774 9.86543 18.2045 9.93095 18.2045 9.99927C18.2045 10.0676 18.1774 10.1331 18.1291 10.1815L16.18 12.1305L17.2457 13.1927C17.294 13.2411 17.3211 13.3066 17.3211 13.3749C17.3211 13.4432 17.294 13.5087 17.2457 13.5571C17.2219 13.5812 17.1935 13.6003 17.1622 13.6133C17.1309 13.6263 17.0974 13.6329 17.0635 13.6327Z" fill="black"/>
<path d="M11.8693 8.4426C11.801 8.44254 11.7355 8.41534 11.6872 8.36698L9.39778 6.07416C9.37345 6.05046 9.35412 6.02213 9.34092 5.99084C9.32772 5.95955 9.32092 5.92594 9.32092 5.89198C9.32092 5.85802 9.32772 5.8244 9.34092 5.79311C9.35412 5.76182 9.37345 5.73349 9.39778 5.70979L11.6872 3.40666C11.7363 3.36 11.8015 3.33398 11.8693 3.33398C11.9371 3.33398 12.0023 3.36 12.0515 3.40666L14.3409 5.69604C14.3892 5.74438 14.4163 5.80991 14.4163 5.87823C14.4163 5.94655 14.3892 6.01207 14.3409 6.06041L12.0515 8.35323C12.0046 8.40544 11.9393 8.43747 11.8693 8.4426ZM9.93746 5.89198L11.8625 7.81698L13.7875 5.89198L11.8625 3.96698L9.93746 5.89198Z" fill="black"/>
<path d="M9.01277 17.5336C8.97887 17.534 8.94525 17.5274 8.91393 17.5144C8.88262 17.5014 8.85427 17.4822 8.83058 17.458L6.54121 15.1686C6.51689 15.1449 6.49755 15.1166 6.48435 15.0853C6.47116 15.054 6.46436 15.0204 6.46436 14.9864C6.46436 14.9525 6.47116 14.9188 6.48435 14.8875C6.49755 14.8563 6.51689 14.8279 6.54121 14.8042L8.83058 12.5149C8.87892 12.4666 8.94445 12.4395 9.01277 12.4395C9.08109 12.4395 9.14662 12.4666 9.19496 12.5149L11.4843 14.8042C11.5326 14.8526 11.5597 14.9181 11.5597 14.9864C11.5597 15.0547 11.5326 15.1203 11.4843 15.1686L9.19496 17.458C9.17115 17.4821 9.14278 17.5012 9.11149 17.5142C9.08021 17.5272 9.04664 17.5338 9.01277 17.5336ZM7.08777 14.9864L9.01277 16.9114L10.9378 14.9864L9.01277 13.0614L7.08777 14.9864Z" fill="black"/>
<path d="M12.1306 20.652C12.0967 20.6523 12.063 20.6458 12.0317 20.6328C12.0004 20.6198 11.9721 20.6006 11.9484 20.5764L9.65901 18.287C9.63468 18.2633 9.61535 18.2349 9.60215 18.2037C9.58895 18.1724 9.58215 18.1387 9.58215 18.1048C9.58215 18.0708 9.58895 18.0372 9.60215 18.0059C9.61535 17.9746 9.63468 17.9463 9.65901 17.9226L11.9484 15.6332C11.9976 15.5866 12.0628 15.5605 12.1306 15.5605C12.1984 15.5605 12.2636 15.5866 12.3128 15.6332L14.6021 17.9226C14.6504 17.9709 14.6775 18.0365 14.6775 18.1048C14.6775 18.1731 14.6504 18.2386 14.6021 18.287L12.3128 20.5935C12.2619 20.636 12.1966 20.6569 12.1306 20.652ZM10.2056 18.1048L12.1306 20.0298L14.0556 18.1048L12.1306 16.1798L10.2056 18.1048Z" fill="black"/>
<path d="M5.89152 14.4056C5.82332 14.4048 5.75805 14.3777 5.70933 14.33L3.40621 12.0509C3.35793 12.0026 3.33081 11.937 3.33081 11.8687C3.33081 11.8004 3.35793 11.7349 3.40621 11.6865L5.69558 9.39716C5.71928 9.37284 5.74761 9.35351 5.7789 9.34031C5.81019 9.32711 5.84381 9.32031 5.87777 9.32031C5.91173 9.32031 5.94535 9.32711 5.97664 9.34031C6.00793 9.35351 6.03626 9.37284 6.05996 9.39716L8.35277 11.6865C8.40105 11.7349 8.42817 11.8004 8.42817 11.8687C8.42817 11.937 8.40105 12.0026 8.35277 12.0509L6.05996 14.3403C6.01353 14.3817 5.95371 14.4049 5.89152 14.4056ZM3.96652 11.8584L5.89152 13.7834L7.81652 11.8584L5.89152 9.93685L3.96652 11.8584Z" fill="black"/>
<path d="M18.9335 15.3344C18.5654 15.333 18.2028 15.2455 17.8745 15.079C17.5463 14.9124 17.2615 14.6715 17.0429 14.3754C16.6751 13.8391 16.5926 13.0382 17.4726 12.4022C18.191 11.8832 18.3938 11.2576 18.3457 10.8451C18.3383 10.7251 18.2986 10.6094 18.2308 10.5102C18.163 10.4109 18.0697 10.3319 17.9607 10.2813C17.6169 10.1404 17.1322 10.2813 16.6201 10.6938L16.4516 10.8279C15.9723 11.2679 15.4002 11.5945 14.7776 11.7835C14.6049 11.8115 14.4279 11.7924 14.2652 11.7283C14.1024 11.6642 13.96 11.5574 13.8529 11.4191C13.7197 11.257 13.6234 11.068 13.5706 10.865C13.5177 10.662 13.5097 10.4499 13.5469 10.2435C13.7348 9.6235 14.0524 9.05053 14.4785 8.56255C15.7916 6.8438 14.5094 4.22786 14.4785 4.20036C14.4634 4.16989 14.4544 4.13674 14.4521 4.1028C14.4498 4.06886 14.4542 4.0348 14.465 4.00256C14.4759 3.97033 14.493 3.94054 14.5153 3.91491C14.5377 3.88927 14.5649 3.8683 14.5954 3.85318C14.6258 3.83805 14.659 3.82908 14.6929 3.82677C14.7269 3.82446 14.7609 3.82886 14.7932 3.83971C14.8583 3.86163 14.912 3.90851 14.9426 3.97005C15.001 4.09036 16.3829 6.90911 14.8704 8.87536C14.5054 9.3081 14.2307 9.80951 14.0626 10.3501C14.0417 10.4793 14.0486 10.6114 14.083 10.7377C14.1174 10.864 14.1784 10.9815 14.2619 11.0822C14.31 11.1486 14.3747 11.201 14.4496 11.2342C14.5244 11.2674 14.6068 11.2802 14.6882 11.2713C15.2234 11.0932 15.7136 10.8012 16.1251 10.4154L16.2935 10.2813C17.2079 9.5663 17.8507 9.67286 18.1532 9.80005C18.345 9.88771 18.51 10.0251 18.6309 10.198C18.7517 10.3708 18.8242 10.5729 18.8407 10.7832C18.906 11.3435 18.6551 12.1582 17.7579 12.8182C17.2526 13.186 17.1426 13.6363 17.4485 14.0832C17.8782 14.7122 18.9472 15.0766 19.676 14.6022C19.7333 14.5695 19.801 14.5601 19.8651 14.5758C19.9293 14.5915 19.9849 14.6312 20.0206 14.6868C20.0563 14.7423 20.0693 14.8094 20.057 14.8743C20.0447 14.9391 20.008 14.9968 19.9544 15.0354C19.6497 15.2305 19.2954 15.3343 18.9335 15.3344Z" fill="black"/>
</g>
<defs>
<clipPath id="clip0_865_53">
<rect width="22" height="22" fill="white" transform="translate(1 1)"/>
</clipPath>
</defs>
</svg>

<svg xmlns="http://www.w3.org/2000/svg" width="24" height="24" fill="none">
    <g clip-path="url(#a)">
        <path fill="#FBE5C6" d="M1.5 12 12 1.5 22.5 12 12 22.5 1.5 12Z" />
        <path fill="#C99B75"
            d="m11.87 3.47 2.39 2.36-2.41 2.43L9.46 5.9zM15 6.62l2.29 2.26-2.36 2.37L12.65 9zM12.05 9.86l2.17 2.16-2.18 2.2-2.18-2.16zM8.94 12.77l2.22 2.2-2.19 2.2-2.21-2.2zM12.1 15.92l2.3 2.27-2.18 2.2-2.3-2.27zM15.18 13l2.3 2.27-2.19 2.2L13 15.2zM18.18 10l2.3 2.27-2.19 2.2L16 12.2zM8.84 6.57l2.39 2.37-2.35 2.36L6.5 8.93zM5.93 9.41l2.39 2.37-2.46 2.48-2.4-2.36z" />
        <path fill="#C99B75" d="m5.93 9.41 2.39 2.37-2.46 2.48-2.4-2.36z" />
        <path fill="#000"
            d="M12 22.57a1.07 1.07 0 0 1-.76-.32l-9.5-9.49a1.08 1.08 0 0 1 0-1.52l9.5-9.5a1.1 1.1 0 0 1 1.52 0l9.5 9.5a1.08 1.08 0 0 1 0 1.52l-9.5 9.5a1.07 1.07 0 0 1-.76.31Zm0-20.62a.55.55 0 0 0-.4.16l-9.49 9.5a.56.56 0 0 0 0 .79l9.5 9.49a.57.57 0 0 0 .79 0l9.49-9.5a.56.56 0 0 0 0-.78l-9.5-9.5a.55.55 0 0 0-.39-.16Z" />
        <path fill="#FDFDFD"
            d="m15.5 6.5-.5-2 7.5 7.5-3 3h-1L17 14l1-2 .5-1-.5-1h-1l-2 1.5-1-.5v-.5l.5-1.5 1-2.5Z" />
        <path fill="#000"
            d="M12 14.55a.26.26 0 0 1-.18-.08l-2.3-2.29a.26.26 0 0 1 0-.36l2.3-2.3a.26.26 0 0 1 .36 0l2.3 2.3a.26.26 0 0 1 0 .36l-2.3 2.3a.25.25 0 0 1-.18.07ZM10.07 12 12 13.93 13.93 12 12 10.08 10.07 12ZM15.12 17.67a.25.25 0 0 1-.18-.08l-2.3-2.29a.25.25 0 0 1 0-.36l2.3-2.3a.25.25 0 0 1 .36 0l2.29 2.3a.26.26 0 0 1 0 .36L15.3 17.6a.25.25 0 0 1-.18.08Zm-1.93-2.55 1.93 1.92 1.92-1.92-1.92-1.93-1.93 1.93ZM8.88 11.43a.26.26 0 0 1-.18-.08L6.4 9.06a.26.26 0 0 1 0-.36l2.3-2.3a.26.26 0 0 1 .36 0l2.3 2.3a.26.26 0 0 1 0 .36l-2.3 2.3a.26.26 0 0 1-.18.07ZM6.96 8.88l1.92 1.93 1.93-1.93-1.93-1.93-1.92 1.93ZM13.84 10.4a.27.27 0 0 1-.19-.07L12.52 9.2a.26.26 0 0 1 0-.37l2.29-2.3a.26.26 0 0 1 .36 0l.32.33a.26.26 0 0 1-.36.37l-.14-.14L13.06 9l.96.96a.25.25 0 0 1 0 .36.26.26 0 0 1-.18.08ZM17.06 13.63a.24.24 0 0 1-.18-.07l-1.25-1.25a.26.26 0 0 1 0-.36l2.13-2.13a.25.25 0 0 1 .37 0 .26.26 0 0 1 0 .36l-1.95 1.95 1.07 1.06a.26.26 0 0 1-.19.44ZM11.87 8.44a.26.26 0 0 1-.18-.07l-2.3-2.3a.25.25 0 0 1 0-.36l2.3-2.3a.26.26 0 0 1 .36 0l2.3 2.29a.26.26 0 0 1 0 .36l-2.3 2.3a.27.27 0 0 1-.18.08ZM9.94 5.9l1.92 1.93 1.93-1.93-1.93-1.92-1.92 1.92ZM9.01 17.53a.25.25 0 0 1-.18-.07l-2.29-2.3a.25.25 0 0 1 0-.36l2.3-2.29a.26.26 0 0 1 .35 0l2.3 2.3a.26.26 0 0 1 0 .36l-2.3 2.29a.25.25 0 0 1-.18.07ZM7.1 15 9 16.9 10.94 15 9 13.06 7.1 15ZM12.13 20.65a.25.25 0 0 1-.18-.07l-2.3-2.3a.26.26 0 0 1 0-.36l2.3-2.29a.27.27 0 0 1 .36 0l2.3 2.3a.26.26 0 0 1 0 .36l-2.3 2.3a.25.25 0 0 1-.18.06Zm-1.92-2.55 1.92 1.93 1.93-1.93-1.93-1.92-1.92 1.92ZM5.9 14.4a.26.26 0 0 1-.2-.07l-2.3-2.28a.26.26 0 0 1 0-.36l2.3-2.3a.25.25 0 0 1 .36 0l2.3 2.3a.26.26 0 0 1 0 .36l-2.3 2.29a.26.26 0 0 1-.17.07Zm-1.93-2.54 1.92 1.92 1.93-1.92-1.93-1.92-1.92 1.92Z" />
        <path fill="#000"
            d="M18.93 15.33a2.36 2.36 0 0 1-1.89-.95c-.36-.54-.45-1.34.43-1.98.72-.52.92-1.14.88-1.55a.67.67 0 0 0-.39-.57c-.34-.14-.83 0-1.34.41l-.17.14c-.48.44-1.05.76-1.67.95a.97.97 0 0 1-.93-.36 1.45 1.45 0 0 1-.3-1.18c.18-.62.5-1.19.93-1.68 1.31-1.72.03-4.33 0-4.36a.26.26 0 0 1 .46-.23c.06.12 1.44 2.94-.07 4.9-.36.44-.64.94-.8 1.48a.92.92 0 0 0 .2.73.46.46 0 0 0 .42.2 3.9 3.9 0 0 0 1.44-.86l.16-.14c.92-.71 1.56-.6 1.86-.48a1.18 1.18 0 0 1 .7.98c.06.56-.2 1.38-1.1 2.04-.5.37-.6.82-.3 1.26.43.63 1.5 1 2.23.52a.26.26 0 0 1 .27.44c-.3.2-.65.3-1.02.3Z" />
    </g>
    <defs>
        <clipPath id="a">
            <path fill="#fff" d="M1 1h22v22H1z" />
        </clipPath>
    </defs>
</svg>
